teeny/solid/info-small.svg

<svg width="15" height="15" viewBox="0 0 15 15" fill="none" xmlns="http://www.w3.org/2000/svg">
<path fill-rule="evenodd" clip-rule="evenodd" d="M8 3.98999V4.99999H7V3.98999H8ZM6 11V9.99999H7L7 7.99999H6V6.99999L8 6.99999L8 9.99999H9V11H6Z" fill="black"/>
</svg>

<svg viewBox="0 0 15 15" xmlns="http://www.w3.org/2000/svg"><path fill-rule="evenodd" d="M8 3.98v1.01H7V3.98h1Zm-2 7.01V9.98h1v-2H6v-1h2v3h1v1H6Z"/></svg>
